src/assets/icons/fa/dashboard.svg

<?xml version="1.0" encoding="utf-8"?>
<svg width="1792" height="1792" viewBox="0 0 1792 1792" xmlns="http://www.w3.org/2000/svg"><path d="M384 1152q0-53-37.5-90.5t-90.5-37.5-90.5 37.5-37.5 90.5 37.5 90.5 90.5 37.5 90.5-37.5 37.5-90.5zm192-448q0-53-37.5-90.5t-90.5-37.5-90.5 37.5-37.5 90.5 37.5 90.5 90.5 37.5 90.5-37.5 37.5-90.5zm428 481l101-382q6-26-7.5-48.5t-38.5-29.5-48 6.5-30 39.5l-101 382q-60 5-107 43.5t-63 98.5q-20 77 20 146t117 89 146-20 89-117q16-60-6-117t-72-91zm660-33q0-53-37.5-90.5t-90.5-37.5-90.5 37.5-37.5 90.5 37.5 90.5 90.5 37.5 90.5-37.5 37.5-90.5zm-640-640q0-53-37.5-90.5t-90.5-37.5-90.5 37.5-37.5 90.5 37.5 90.5 90.5 37.5 90.5-37.5 37.5-90.5zm448 192q0-53-37.5-90.5t-90.5-37.5-90.5 37.5-37.5 90.5 37.5 90.5 90.5 37.5 90.5-37.5 37.5-90.5zm320 448q0 261-141 483-19 29-54 29h-1402q-35 0-54-29-141-221-141-483 0-182 71-348t191-286 286-191 348-71 348 71 286 191 191 286 71 348z"/></svg>

<svg width="1792" height="1792" xmlns="http://www.w3.org/2000/svg"><path d="M384 1152q0-53-37.5-90.5T256 1024t-90.5 37.5T128 1152t37.5 90.5T256 1280t90.5-37.5T384 1152zm192-448q0-53-37.5-90.5T448 576t-90.5 37.5T320 704t37.5 90.5T448 832t90.5-37.5T576 704zm428 481l101-382q6-26-7.5-48.5T1059 725t-48 6.5-30 39.5l-101 382q-60 5-107 43.5t-63 98.5q-20 77 20 146t117 89 146-20 89-117q16-60-6-117t-72-91zm660-33q0-53-37.5-90.5T1536 1024t-90.5 37.5-37.5 90.5 37.5 90.5 90.5 37.5 90.5-37.5 37.5-90.5zm-640-640q0-53-37.5-90.5T896 384t-90.5 37.5T768 512t37.5 90.5T896 640t90.5-37.5T1024 512zm448 192q0-53-37.5-90.5T1344 576t-90.5 37.5T1216 704t37.5 90.5T1344 832t90.5-37.5T1472 704zm320 448q0 261-141 483-19 29-54 29H195q-35 0-54-29Q0 1414 0 1152q0-182 71-348t191-286 286-191 348-71 348 71 286 191 191 286 71 348z"/></svg>
